X: 93
T:Butchers Hornpipe. GS.093
M:4/4
L:1/8
Q:160
S:George Spencer m/s, Leeds,1831
R:Hornpipe
O:England
A:Leeds
H:1831
Z:vmp.Cherri Graebe
K:G major
DB,  | G,B,DB, G,B,DB, | G,2 G2G2 AF | DFAF DFAF |
 D2 d2 d2 (cB) | cdec cdec |! ABcd efga | 
fdec dBAG | D2 G2 G2 :||: Bc | dBGB dBGB | ecAc ecAc |! gfed egag | f2 d
2 d2 (cB) | 
cdec cdec | ABcd efga | fdec dBAG | D2 G2G2 :||
